flaticon/interaction/mail-9.svg

<svg xmlns="http://www.w3.org/2000/svg" width="32" height="32" viewBox="0 0 24 24">
    <path d="M 23.640625 12.445312 L 22.472656 11.277344 C 21.996094 10.800781 21.222656 10.800781 20.746094 11.277344 L 14.4375 17.585938 L 13.566406 20.773438 L 13.355469 20.988281 C 13.195312 21.144531 13.195312 21.402344 13.351562 21.5625 L 13.351562 21.570312 L 13.359375 21.570312 C 13.4375 21.648438 13.539062 21.6875 13.644531 21.6875 C 13.75 21.6875 13.855469 21.644531 13.933594 21.566406 L 14.148438 21.351562 L 17.335938 20.484375 L 23.640625 14.175781 C 24.121094 13.699219 24.121094 12.921875 23.640625 12.445312 Z M 15.382812 17.800781 L 19.582031 13.601562 L 21.320312 15.339844 L 17.121094 19.539062 Z M 15.011719 18.589844 L 16.332031 19.90625 L 14.519531 20.402344 Z M 23.0625 13.597656 L 21.898438 14.761719 L 20.160156 13.023438 L 21.324219 11.859375 C 21.480469 11.699219 21.738281 11.699219 21.894531 11.859375 L 23.0625 13.027344 C 23.21875 13.183594 23.21875 13.441406 23.0625 13.597656 Z M 23.0625 13.597656"/>
    <path d="M 11.886719 18.296875 L 1.589844 18.296875 C 3.453125 16.820312 7.65625 13.46875 9.816406 11.574219 L 10.398438 12.089844 C 10.808594 12.457031 11.347656 12.640625 11.886719 12.640625 C 12.421875 12.640625 12.960938 12.457031 13.371094 12.089844 L 22.949219 3.632812 L 22.949219 10.101562 C 22.949219 10.328125 23.132812 10.511719 23.359375 10.511719 C 23.585938 10.511719 23.769531 10.328125 23.769531 10.101562 L 23.769531 2.722656 C 23.769531 2.71875 23.769531 2.71875 23.769531 2.714844 C 23.765625 2.667969 23.761719 2.621094 23.742188 2.578125 C 23.742188 2.574219 23.738281 2.574219 23.738281 2.570312 C 23.734375 2.558594 23.726562 2.550781 23.722656 2.539062 C 23.707031 2.507812 23.683594 2.476562 23.660156 2.449219 C 23.648438 2.4375 23.640625 2.429688 23.628906 2.417969 C 23.601562 2.394531 23.574219 2.378906 23.542969 2.363281 C 23.53125 2.355469 23.519531 2.347656 23.503906 2.34375 C 23.457031 2.324219 23.410156 2.3125 23.359375 2.3125 L 0.410156 2.3125 C 0.359375 2.3125 0.3125 2.324219 0.265625 2.34375 C 0.25 2.347656 0.238281 2.355469 0.226562 2.363281 C 0.195312 2.378906 0.167969 2.394531 0.144531 2.417969 C 0.128906 2.429688 0.121094 2.4375 0.109375 2.449219 C 0.0859375 2.476562 0.0664062 2.507812 0.046875 2.539062 C 0.0429688 2.550781 0.0351562 2.558594 0.03125 2.570312 C 0.03125 2.574219 0.0273438 2.574219 0.0273438 2.578125 C 0.0117188 2.621094 0.00390625 2.667969 0.00390625 2.714844 C 0 2.71875 0 2.71875 0 2.722656 L 0 18.707031 C 0 18.707031 0 18.710938 0 18.710938 C 0 18.753906 0.0078125 18.796875 0.0234375 18.839844 C 0.0234375 18.847656 0.0273438 18.851562 0.03125 18.855469 C 0.0351562 18.871094 0.0429688 18.882812 0.0507812 18.894531 C 0.0664062 18.925781 0.0859375 18.953125 0.105469 18.976562 C 0.117188 18.992188 0.128906 19 0.144531 19.011719 C 0.167969 19.035156 0.195312 19.050781 0.222656 19.066406 C 0.238281 19.074219 0.25 19.082031 0.265625 19.089844 C 0.3125 19.105469 0.359375 19.117188 0.410156 19.117188 L 11.886719 19.117188 C 12.109375 19.117188 12.292969 18.933594 12.292969 18.707031 C 12.292969 18.480469 12.109375 18.296875 11.886719 18.296875 Z M 0.820312 17.859375 L 0.820312 3.632812 L 9.195312 11.027344 C 6.917969 13.015625 2.496094 16.535156 0.820312 17.859375 Z M 22.277344 3.132812 L 12.828125 11.476562 C 12.308594 11.941406 11.460938 11.941406 10.941406 11.476562 L 10.128906 10.761719 C 10.128906 10.757812 10.128906 10.753906 10.125 10.75 C 10.117188 10.742188 10.101562 10.738281 10.09375 10.726562 L 1.492188 3.132812 Z M 22.277344 3.132812"/>
</svg>

<svg xmlns="http://www.w3.org/2000/svg" width="32" height="32" viewBox="0 0 24 24">
    <path d="M23.64 12.445l-1.167-1.168a1.221 1.221 0 0 0-1.727 0l-6.308 6.309-.872 3.187-.21.215a.407.407 0 0 0-.004.575v.007h.007c.079.078.18.117.286.117.105 0 .21-.042.289-.12l.214-.215 3.188-.868 6.305-6.308c.48-.477.48-1.254 0-1.73zm-8.257 5.356l4.199-4.2 1.738 1.739-4.199 4.2zm-.371.789l1.32 1.316-1.812.496zm8.05-4.992l-1.164 1.164-1.738-1.739 1.164-1.164a.399.399 0 0 1 .57 0l1.169 1.168a.406.406 0 0 1 0 .57zm0 0"/>
    <path d="M11.887 18.297H1.59c1.863-1.477 6.066-4.828 8.226-6.723l.582.516c.41.367.95.55 1.489.55.535 0 1.074-.183 1.484-.55l9.578-8.457v6.469a.41.41 0 1 0 .82 0v-7.38-.007c-.003-.047-.007-.094-.027-.137 0-.004-.004-.004-.004-.008-.004-.011-.011-.02-.015-.03a.463.463 0 0 0-.063-.09l-.031-.032a.4.4 0 0 0-.086-.055.37.37 0 0 0-.184-.05H.41a.37.37 0 0 0-.144.03c-.016.005-.028.012-.04.02a.301.301 0 0 0-.081.055c-.016.012-.024.02-.036.031a.735.735 0 0 0-.062.09c-.004.012-.012.02-.016.031 0 .004-.004.004-.004.008a.402.402 0 0 0-.023.137C0 2.719 0 2.719 0 2.723V18.71c0 .043.008.086.023.129 0 .008.004.012.008.015.004.016.012.028.02.04a.428.428 0 0 0 .054.082c.012.015.024.023.04.035.023.023.05.039.078.054l.043.024a.452.452 0 0 0 .144.027h11.477a.41.41 0 0 0 .406-.41.41.41 0 0 0-.406-.41zM.82 17.859V3.633l8.375 7.394C6.918 13.016 2.496 16.535.82 17.86zM22.277 3.133l-9.449 8.344a1.45 1.45 0 0 1-1.887 0l-.812-.715c0-.004 0-.008-.004-.012-.008-.008-.023-.012-.031-.023L1.492 3.133zm0 0"/>
</svg>
